X: 10667
T: Down The Broom
R: reel
M: 4/4
K: Adorian
"First time through" E2 (3AAA A2 Bd|eg ~g2 eg d2|DG ~G2 G2 BG|(3GGG BG AGED|
E2 (3AAA A2 Bd|eg ~g2 egdg|eg ~g2 egba|gedB {d}BA A2||
"Thereafter" EA (3AAA A2 Bd|eg ~g2 egdc|BG ~G2 GAGE|(3DED B,D GABG|
EA (3AAA A2 Bd|eg ~g2 egdg|eg ~g2 egba|gedB {d}BA Ae:|
~a2 ea {b}ageg|agbg ageg|(3ggg dg Bgdg|{a}geae gede|
~a2 ea {b}ageg|agbg ageg|eg{a}gg edba|gedB BA A2:|

